svg/fluentui-system-icons/ic_fluent_gavel_prohibited_16_regular.svg

<svg width="16" height="16" viewBox="0 0 16 16" fill="none" xmlns="http://www.w3.org/2000/svg">
<path d="M8.23988 2.22996L8.53988 2.68996L5.74988 5.47996L5.28988 5.17996C5.01988 5.00996 4.97988 4.62996 5.20988 4.40996L7.46988 2.14996C7.69988 1.91996 8.06988 1.95996 8.23988 2.22996ZM8.22165 7.08342L6.60988 6.03996L9.09988 3.54996L10.2199 5.27996C10.3399 5.45996 10.4899 5.60996 10.6699 5.72996L11.1082 6.01374C11.2376 6.00463 11.3683 6 11.5 6C12.2046 6 12.8782 6.13249 13.4974 6.37392L11.1999 4.88996C11.1399 4.84996 11.0899 4.79996 11.0499 4.73996L9.07988 1.68996H9.08988C8.56988 0.889959 7.43988 0.769959 6.76988 1.43996L4.49988 3.69996C3.81988 4.37996 3.93988 5.49996 4.74988 6.01996L6.16988 6.93996L1.58988 11.53C0.809883 12.31 0.809883 13.58 1.58988 14.36C2.36988 15.14 3.63988 15.14 4.41988 14.36L6.12207 12.6578C6.0421 12.2845 6 11.8972 6 11.5C6 11.4491 6.00069 11.3983 6.00207 11.3477L3.69984 13.6499C3.30984 14.0399 2.67984 14.0399 2.28984 13.6499C1.89984 13.2599 1.89984 12.6299 2.28984 12.2399L7.02984 7.50994L7.45083 7.77783L8.22165 7.08342ZM7 11.5C7 13.9853 9.01472 16 11.5 16C13.9853 16 16 13.9853 16 11.5C16 9.01472 13.9853 7 11.5 7C9.01472 7 7 9.01472 7 11.5ZM8 11.5C8 9.567 9.567 8 11.5 8C12.2862 8 13.0118 8.2592 13.5961 8.69681L8.69681 13.5961C8.2592 13.0118 8 12.2862 8 11.5ZM11.5 15C10.7138 15 9.9882 14.7408 9.40391 14.3032L14.3032 9.40391C14.7408 9.9882 15 10.7138 15 11.5C15 13.433 13.433 15 11.5 15Z" fill="#212121"/>
</svg>

<svg xmlns="http://www.w3.org/2000/svg" width="16" height="16"><path d="m8.24 2.23.3.46-2.79 2.79-.46-.3a.492.492 0 0 1-.08-.77l2.26-2.26c.23-.23.6-.19.77.08Zm-.018 4.853L6.61 6.04 9.1 3.55l1.12 1.73c.12.18.27.33.45.45l.438.284a5.486 5.486 0 0 1 2.39.36L11.2 4.89a.536.536 0 0 1-.15-.15L9.08 1.69h.01c-.52-.8-1.65-.92-2.32-.25L4.5 3.7c-.68.68-.56 1.8.25 2.32l1.42.92-4.58 4.59c-.78.78-.78 2.05 0 2.83.78.78 2.05.78 2.83 0l1.702-1.702a5.522 5.522 0 0 1-.12-1.31L3.7 13.65a.996.996 0 1 1-1.41-1.41l4.74-4.73.42.268.772-.695ZM7 11.5a4.5 4.5 0 1 0 9 0 4.5 4.5 0 0 0-9 0Zm1 0a3.5 3.5 0 0 1 5.596-2.803l-4.9 4.9A3.484 3.484 0 0 1 8 11.5Zm3.5 3.5c-.786 0-1.512-.26-2.096-.697l4.9-4.9A3.5 3.5 0 0 1 11.5 15Z"/></svg>
